m/partners/pnr09.svg

<svg width="87" height="40" viewBox="0 0 87 40" fill="none" xmlns="http://www.w3.org/2000/svg">
<path d="M29.6218 23.0176H29.166C26.7768 23.0176 25.1115 23.1689 24.1728 23.4724C23.2321 23.7759 22.7618 24.2944 22.7618 25.0288C22.7618 25.553 23.0018 25.946 23.4817 26.2076C23.9617 26.4692 24.6816 26.6005 25.6415 26.6005C26.9243 26.6005 27.9083 26.3198 28.5935 25.7595C29.2787 25.1991 29.6218 24.3914 29.6218 23.3344V23.0176V23.0176ZM29.7683 27.2589C29.1409 28.0561 28.2263 28.665 27.0216 29.0846C25.8179 29.506 24.3886 29.7172 22.7348 29.7172C20.8247 29.7172 19.3482 29.3414 18.3064 28.5889C17.2636 27.8354 16.7422 26.7718 16.7422 25.3961C16.7422 24.5389 16.9426 23.7682 17.3436 23.0852C17.7445 22.4011 18.3266 21.8436 19.0899 21.4079C19.6961 21.0492 20.5452 20.7933 21.6361 20.6411C22.7262 20.4888 24.4503 20.4118 26.8086 20.4118H29.6218C29.6218 20.3575 29.6267 20.2862 29.6363 20.2006C29.6459 20.114 29.6508 20.0522 29.6508 20.016C29.6508 19.2511 29.4069 18.6688 28.9222 18.2683C28.4364 17.8668 27.7309 17.667 26.8086 17.667C25.7562 17.667 24.9756 17.7993 24.4657 18.0628C23.9549 18.3254 23.6504 18.7516 23.5521 19.3415H17.7291C17.9141 17.8012 18.7516 16.6643 20.2416 15.9308C21.7316 15.1954 23.9521 14.8281 26.9031 14.8281C29.7462 14.8281 31.8394 15.2686 33.1829 16.1477C34.5254 17.0277 35.1981 18.3929 35.1981 20.2434V27.4967C35.1981 27.9001 35.2203 28.2502 35.2637 28.5499C35.308 28.8496 35.3832 29.1293 35.4911 29.3909H30.1336C30.0073 29.1293 29.9148 28.8439 29.856 28.5356C29.7982 28.2274 29.7683 27.8906 29.7683 27.5252V27.2589Z" fill="#2B354E"/>
<path d="M15.7507 9.49587C15.7507 11.7307 13.828 13.543 11.4581 13.543C9.08627 13.543 7.16357 11.7307 7.16357 9.49587C7.16357 7.26013 9.08627 5.44775 11.4581 5.44775C13.828 5.44775 15.7507 7.26013 15.7507 9.49587Z" fill="#2B354E"/>
<path d="M70.0149 26.8436C71.2572 26.8436 72.2489 26.4602 72.991 25.6943C73.7341 24.9275 74.1061 23.9038 74.1061 22.6195C74.1061 21.1696 73.7389 20.046 73.0064 19.2478C72.273 18.4496 71.2466 18.05 69.9263 18.05C68.6358 18.05 67.6258 18.4324 66.8972 19.1993C66.1695 19.9651 65.8062 21.0364 65.8062 22.4121C65.8062 23.861 66.1647 24.9627 66.8837 25.7143C67.6017 26.4668 68.6454 26.8436 70.0149 26.8436ZM60.0911 34.7058V18.3268C60.0911 17.8397 60.0709 17.3307 60.0313 16.798C59.9918 16.2662 59.933 15.7058 59.855 15.1178H65.6876C65.7464 15.4851 65.7908 15.8523 65.8206 16.2195C65.8496 16.5868 65.864 16.954 65.864 17.3203V17.7598C66.663 16.7789 67.62 16.0312 68.736 15.5174C69.852 15.0037 71.0828 14.7458 72.4272 14.7458C74.8144 14.7458 76.6774 15.4137 78.017 16.7475C79.3566 18.0823 80.0274 19.9413 80.0274 22.3245C80.0274 24.5879 79.3354 26.3812 77.9515 27.7008C76.5685 29.0203 74.6882 29.6806 72.3096 29.6806C71.024 29.6806 69.8453 29.4817 68.7726 29.085C67.7009 28.6873 66.7314 28.0908 65.864 27.2955V34.7058H60.0911V34.7058Z" fill="#2B354E"/>
<path d="M47.9138 26.8836C49.1561 26.8836 50.1488 26.4993 50.8909 25.7334C51.633 24.9666 52.005 23.9429 52.005 22.6595C52.005 21.2086 51.6388 20.0851 50.9053 19.2869C50.1729 18.4887 49.1465 18.0891 47.8261 18.0891C46.5357 18.0891 45.5256 18.4725 44.797 19.2383C44.0694 20.0052 43.7051 21.0755 43.7051 22.4511C43.7051 23.901 44.0636 25.0018 44.7826 25.7543C45.5006 26.5069 46.5443 26.8836 47.9138 26.8836ZM37.99 34.7458V18.3659C37.99 17.8798 37.9698 17.3708 37.9312 16.838C37.8917 16.3062 37.8329 15.7458 37.7539 15.1579H43.5875C43.6454 15.5251 43.6907 15.8923 43.7205 16.2596C43.7494 16.6268 43.7639 16.994 43.7639 17.3603V17.7999C44.5629 16.819 45.5199 16.0712 46.6359 15.5565C47.7519 15.0437 48.9826 14.7859 50.3261 14.7859C52.7133 14.7859 54.5763 15.4538 55.9169 16.7866C57.2575 18.1224 57.9273 19.9804 57.9273 22.3636C57.9273 24.6279 57.2343 26.4203 55.8513 27.7408C54.4683 29.0604 52.5881 29.7206 50.2095 29.7206C48.9239 29.7206 47.7442 29.5218 46.6725 29.1251C45.6008 28.7274 44.6303 28.1309 43.7639 27.3355V34.7458H37.99Z" fill="#2B354E"/>
<path d="M13.9243 15.2139H8.15039V29.4046H13.9243V15.2139Z" fill="#2B354E"/>
</svg>

<svg xmlns="http://www.w3.org/2000/svg" fill="none" viewBox="0 0 87 40"><path fill="#2B354E" d="M29.622 23.018h-.456c-2.39 0-4.055.15-4.993.454-.94.304-1.411.822-1.411 1.557 0 .524.24.917.72 1.179.48.261 1.2.393 2.16.393 1.282 0 2.266-.281 2.951-.841.686-.56 1.029-1.369 1.029-2.426v-.316Zm.146 4.24c-.627.798-1.542 1.407-2.746 1.827-1.204.421-2.633.632-4.287.632-1.91 0-3.387-.376-4.429-1.128-1.042-.754-1.564-1.817-1.564-3.193 0-.857.2-1.628.602-2.31.4-.685.983-1.242 1.746-1.678.606-.359 1.455-.615 2.546-.767 1.09-.152 2.814-.23 5.173-.23h2.813c0-.053.005-.125.014-.21.01-.087.015-.149.015-.185 0-.765-.244-1.347-.729-1.748-.486-.401-1.191-.601-2.113-.601-1.053 0-1.833.132-2.343.396-.511.262-.816.689-.914 1.279H17.73c.185-1.54 1.023-2.678 2.513-3.411 1.49-.736 3.71-1.103 6.661-1.103 2.843 0 4.936.44 6.28 1.32 1.342.88 2.015 2.245 2.015 4.095v7.254c0 .403.022.753.066 1.053.044.3.12.58.227.84h-5.357a3.442 3.442 0 0 1-.278-.854 5.487 5.487 0 0 1-.088-1.01v-.267ZM15.75 9.496c0 2.235-1.922 4.047-4.292 4.047-2.372 0-4.294-1.812-4.294-4.047 0-2.236 1.922-4.048 4.294-4.048 2.37 0 4.293 1.812 4.293 4.048ZM70.015 26.844c1.242 0 2.234-.384 2.976-1.15.743-.767 1.115-1.79 1.115-3.075 0-1.45-.367-2.573-1.1-3.371-.733-.798-1.76-1.198-3.08-1.198-1.29 0-2.3.382-3.029 1.15-.728.765-1.09 1.836-1.09 3.212 0 1.449.358 2.55 1.077 3.302.718.753 1.761 1.13 3.13 1.13Zm-9.924 7.862v-16.38c0-.486-.02-.995-.06-1.528a29.326 29.326 0 0 0-.176-1.68h5.833a13.985 13.985 0 0 1 .176 2.202v.44a7.962 7.962 0 0 1 2.872-2.243c1.116-.513 2.347-.771 3.691-.771 2.387 0 4.25.668 5.59 2.001 1.34 1.335 2.01 3.194 2.01 5.578 0 2.263-.692 4.056-2.076 5.376-1.382 1.32-3.263 1.98-5.641 1.98-1.286 0-2.465-.2-3.537-.596a8.805 8.805 0 0 1-2.909-1.79v7.41h-5.773ZM47.914 26.884c1.242 0 2.235-.385 2.977-1.15.742-.767 1.114-1.791 1.114-3.075 0-1.45-.366-2.574-1.1-3.372-.732-.798-1.758-1.198-3.079-1.198-1.29 0-2.3.384-3.029 1.15-.728.766-1.092 1.837-1.092 3.212 0 1.45.359 2.55 1.078 3.303.718.753 1.761 1.13 3.13 1.13Zm-9.924 7.862v-16.38c0-.486-.02-.995-.059-1.528a28.476 28.476 0 0 0-.177-1.68h5.834a14.03 14.03 0 0 1 .176 2.202v.44a7.975 7.975 0 0 1 2.872-2.244c1.116-.512 2.347-.77 3.69-.77 2.387 0 4.25.668 5.59 2 1.342 1.336 2.011 3.194 2.011 5.578 0 2.264-.693 4.056-2.076 5.377-1.383 1.32-3.263 1.98-5.642 1.98-1.285 0-2.465-.2-3.537-.596a8.794 8.794 0 0 1-2.908-1.79v7.41H37.99ZM13.924 15.214H8.15v14.19h5.774v-14.19Z"/></svg>
